!!!COM: Mozart
!!!OTL: 8 Variationen uber das Lied "Ein Weib ist das herrlichste Ding"
!!!Variation: Variation 8 b
**function	**harm	**kern	**kern
*	*	*clefF4	*clefG2
*	*	*k[b-]	*k[b-]
*M2/4	*M2/4	*M2/4	*M2/4
*F:	*F:	*F:	*F:
8T	F:maj	8r	8c
=365	=365	=365	=365
2T	B-:maj	8r	(8f
.	.	(8A	4c)
.	.	8GL	.
.	.	.	(q32g
.	.	.	q32f
.	.	.	q32e
.	.	8FJ)	(8f)
=366	=366	=366	=366
2T	F:maj	8r	8g
.	.	(8E	4c)
.	.	8DL	.
.	.	.	(q32a
.	.	.	q32g
.	.	.	q32f
.	.	8CJ	(8g)
=367	=367	=367	=367
8T	B-:maj	8FL	8aL
8T	D:7/3	8C#J	8eJ
8T	G:min	8DL)	8fL)
8T	C:min/b3	8BB-'J	8g'J 8b-'
=368	=368	=368	=368
4T	B-:maj/5	4.C	(4f 4a
4T	F:maj	.	8eL) 8g
.	.	8r	8cc'J
=369	=369	=369	=369
8T	B-:maj	8FF' 8F'	8a' 8cc'
4T	F:7/5	(4GG 4G	(4g 4b-
8T	B-:maj/3	8AA) 8A	8f) 8a
=370	=370	=370	=370
8P	E-:maj	8BB-' 8B-'	8b-' 8dd'
4P	A:dim7/b5	(4C 4c	(4g 4b- 4ee
8P	E:dim7	8D) 8d	8f) 8a 8ff
=371	=371	=371	=371
*	*	*^	*
4D	B-:maj/5	8AL	8CL	8f'L
.	.	8AJ	8CJ	8f'J
*	*	*	*	*^
4D	F:7	8B-L	8CL	(16gLL	4e
.	.	.	.	16f	.
.	.	8B-J	8CJ	16g	.
.	.	.	.	16aJJ)	.
=372	=372	=372	=372	=372	=372
4.T	B-:maj	8A	8FL	4f	4f
*	*	*v	*v	*	*
*	*	*	*v	*v
.	.	8CJ	.
.	.	8FF	8r
*-	*-	*-	*-
!!!EMD: Edited in humdrumR 0.7.0.3 on 2024-01-19
